Sources/FrostedUI/Resources/Icons.xcassets/mail24.imageset/mail-24.svg

<svg width="24" height="24" viewBox="0 0 24 24" fill="none" xmlns="http://www.w3.org/2000/svg" data-fui-icon="true">
  <path
    d="M20.1396 2.5C22.2715 2.5 24 4.22853 24 6.36035V17.6396C24 19.7715 22.2715 21.5 20.1396 21.5H3.86035C1.72853 21.5 0 19.7715 0 17.6396V6.36035C0 4.22853 1.72853 2.5 3.86035 2.5H20.1396ZM14.8848 14.1377C14.0278 14.7002 13.0251 15 12 15C10.9749 15 9.97219 14.7002 9.11523 14.1377L1.5 9.13867V17.6396C1.5 18.943 2.55696 20 3.86035 20H20.1396C21.443 20 22.5 18.943 22.5 17.6396V9.13867L14.8848 14.1377ZM3.86035 4C2.55696 4 1.5 5.05696 1.5 6.36035V7.34473L9.93848 12.8838C10.5509 13.2858 11.2674 13.5 12 13.5C12.7326 13.5 13.4491 13.2858 14.0615 12.8838L22.5 7.34473V6.36035C22.5 5.05696 21.443 4 20.1396 4H3.86035Z"
    fill="currentColor"
  />
</svg>

<svg xmlns="http://www.w3.org/2000/svg" width="24" height="24" fill="none" data-fui-icon="true" viewBox="0 0 24 24"><path fill="currentColor" d="M20.14 2.5A3.86 3.86 0 0 1 24 6.36v11.28a3.86 3.86 0 0 1-3.86 3.86H3.86A3.86 3.86 0 0 1 0 17.64V6.36A3.86 3.86 0 0 1 3.86 2.5zm-5.255 11.638a5.26 5.26 0 0 1-5.77 0l-7.615-5v8.502A2.36 2.36 0 0 0 3.86 20h16.28a2.36 2.36 0 0 0 2.36-2.36V9.139zM3.86 4A2.36 2.36 0 0 0 1.5 6.36v.985l8.438 5.539a3.76 3.76 0 0 0 4.124 0l8.438-5.54V6.36A2.36 2.36 0 0 0 20.14 4z"/></svg>
